X:1
T:The Victory Side
T:The Victory Side
T:Lelia Naylor Morris
T:Lelia Naylor Morris (1862-1929)
T:Public Domain Courtesy of the Cyber Hymnal™
T:Public Domain Courtesy of the Cyber Hymnal™
C:Lelia Naylor Morris
Z:Public Domain
Z:Courtesy of the Cyber Hymnal™
%%score ( 1 2 ) ( 3 4 )
L:1/8
Q:1/4=100
M:4/4
K:Eb
V:1 treble 
V:2 treble 
V:3 bass 
V:4 bass 
V:1
 [GB] | [GB]2 [GB][Ac] [GB]2 E[EF] | [EG]2 [EG]>[EA] [EG]4 | [GB][GB] [GB]>[GB] [Gc]2 [Ge]2 | %4
w: 1.~I’m|o- ver in Ca- naan where|rich- es a- bound,|Liv- ing on the vic- tory|
w: 2.~No|long- er by fears am I|fet- tered and bound,|Liv- ing on the vic- tory|
w: 3.~I|walk in the sun- shine of|God’s ho- ly light,|Liv- ing on the vic- tory|
w: 4.~The|Lord, whom I trust, is my|strength and my song,|Liv- ing on the vic- tory|
 [Ad]4- [Ad]3 [Ad] | [Ge]2 [Ge][Ge] [Ge]2 [GB][GB] | [Ac]2 [Ae]>[Ac] [GB]4 EEE>[EF] [EG]2 [DF]2 | %7
w: side; * Each|day go- ing on to pos-|sess high- er ground, Liv- ing on the vic- tory|
w: side; * Sweet|free- dom in ser- vice for|Christ I have found, Liv- ing on the vic- tory|
w: side; * The|will of my Lord is my|joy and de- light, Liv- ing on the vic- tory|
w: side; * No|foes can a- larm, since to|Him I be- long, Liv- ing on the vic- tory|
 [B,E]6 z x ||"^Refrain" B x6 | (z [Ge]) [Ad]2 [Ac]2 | [GB]/ ([Ge-]3/2 e4) [EB]2 | %11
w: side.||||
w: side.|Sing|* glo- ry,|hal- le- * lu-|
w: side.||||
w: side.||||
 [Ec][Ec] [=Ec]>[Ec] [Fc]2 [F_e]2 | [Fd]6 [Ad]2 | [Ge]3 [Ge] [Bd]2 [Ac]2 | %14
w: |||
w: jah! I’m liv- ing on the|vic- tory|side; Since Christ my|
w: |||
w: |||
 [GB]2 [EG]2 !fermata![Ee]2 [Ec]2 | [EB][EB] E>[EF] [EG]2 [DF]2 | [B,E]6 x2 |] x6 |] %18
w: ||||
w: soul hath sanc- ti-|fied, I’m liv- ing on the|vic-||
w: ||||
w: ||||
V:2
 x | x6 E x | x8 | x8 | x8 | x8 | x8 EEE3/2 x9/2 | x8 || x7 | (f3 A A) x | x2 (G>G G2) x2 | x8 | %12
 x8 | x8 | x8 | x2 E3/2 x9/2 | x8 |] x6 |] %18
V:3
 [E,E] | [E,E]2 [E,E] [E,E]2 [E,E][E,G,][E,A,] | [E,B,]2 [E,B,]>[E,C] [E,B,]4 | %3
w: ~|~ ~ ~ ~ ~ ~|~ ~ ~ ~|
 [E,B,]2 [B,,B,]2 [E,B,]2 [B,,B,]2 | [F,B,]2 [F,B,]2 [B,,B,]3 [B,,B,] | %5
w: ~ ~ ~ ~|~ ~ ~ ~|
 [E,B,]2 [E,C][E,C] [E,B,]2 [E,C][E,C] | [A,E]2 [A,C]>[A,E] [E,E]4 x8 | %7
w: ~ ~ ~ ~ ~ ~|~ ~ ~ ~|
 [G,B,][G,B,] [G,B,]>[A,C] B,2 [B,,A,]2 || [E,G,]6 z | z x5 | z [B,D][B,D][B,E] [B,F]2 [B,D]2 | %11
w: ~ ~ ~ ~ ~ ~|~||Sing glo- ry, hal- le-|
 [E,E]<[E,-B,] B,>B, B,2 [E,G,]2 | A,_A, [G,B,]>[G,B,] [F,=A,]2 [F,A,]2 | B,6 [F,B,]2 | %14
w: lu- jah, praise the Lord! *|||
 [E,B,]3 [E,B,] (A,B,) (CD) | [E,E]2 [E,B,]2 !fermata![A,C]2 A,2 | %16
w: ||
 [G,B,][G,B,] [G,B,]>[A,C] B,2 [B,,A,]2 |] [E,G,]6 |] %18
w: ||
V:4
 x | x8 | x8 | x8 | x8 | x8 | x16 | x4 B,2 x2 || x7 | x6 | x8 | x2 E,4 x2 | =A,=A, x6 | %13
 (B,2 A,2 G,2) x2 | x4 A,2 A,2 | x6 A,2 | x4 B,2 x2 |] x6 |] %18

